X: 184
T: Alamuhan
L: 1/16
M: 4/4
K: C
G, C C C B, C D4<E4c2 | 
B A G F E C D2C4z4 | 
G, C C C B, C D4<E4c2 | 
B A G F E C D2C4z4 | 
z2 G G2< G2 A c c c2z4 | 
z2 c c c2 A2 A A G2z4 | 
z2 c c c2 c2 A B A2G4 | 
z2 G G E2 E2 D D E2z4 | 
G, C C C G G F4<E4c2 | 
B A G F E C D2C4z4 | 
G G G G G G F4<E4c2 | 
B A e d c A B2c4z4 |]

@@@ Tune index: 8852
